X:1
L:1/8
Q:1/4=140
M:2/2
K:Amin
 CB, | A,2 A2 A,2 A2 | A,2 A4 GF | E2 c2 E2 c2 | E2 c4 BA | G2 G2 AGFE | F4 E2 FG | A2 C2 D2 E2 | 
 A,6 || cB | c2 g2 c2 g2 | c2 g4 fe | d2 a2 d2 a2 | d2 a4 gf | efgf efgf | efga gfed | 
 cB""^NB""Ac BA^GB | A6 |]
